outputs/icons/action/price_round.svg

<svg xmlns="http://www.w3.org/2000/svg" width="1200" height="1200" fill="none"><g clip-path="url(#a)"><path fill="#000" d="M600 100c-276 0-500 224-500 500s224 500 500 500 500-224 500-500-224-500-500-500m44 788v18c0 24-19.5 44-44 44-24 0-44-19.5-44-44v-21c-31.5-7.5-96.5-30.5-134.5-105-11.5-22-.5-49.5 22.5-59l3.5-1.5c20.5-8.5 43.5 0 54 19.5 16 30.5 47.5 68.5 106 68.5 46.5 0 99-24 99-80.5 0-48-35-73-114-101.5C537.5 606 425 574 425 460c0-5 .5-120 131-148v-18c0-24.5 20-44 44-44s44 19.5 44 44v18.5c53.5 9.5 87.5 38 108 65 17 22 8 54-18 65-18 7.5-39 1.5-51-14-14-19-39-38.5-80-38.5-35 0-90.5 18.5-90.5 69.5 0 47.5 43 65.5 132 95C764.5 596 795 657 795 727c0 131.5-125 156.5-151 161"/></g><defs><clipPath id="a"><path fill="#fff" d="M0 0h1200v1200H0z"/></clipPath></defs></svg>

<svg width="1200" height="1200" viewBox="0 0 1200 1200" fill="none" xmlns="http://www.w3.org/2000/svg"><g clip-path="url(#clip0_223_1921)"><path d="M600 100C324 100 100 324 100 600C100 876 324 1100 600 1100C876 1100 1100 876 1100 600C1100 324 876 100 600 100ZM644 888V906C644 930 624.5 950 600 950C576 950 556 930.5 556 906V885C524.5 877.5 459.5 854.5 421.5 780C410 758 421 730.5 444 721L447.5 719.5C468 711 491 719.5 501.5 739C517.5 769.5 549 807.5 607.5 807.5C654 807.5 706.5 783.5 706.5 727C706.5 679 671.5 654 592.5 625.5C537.5 606 425 574 425 460C425 455 425.5 340 556 312V294C556 269.5 576 250 600 250C624 250 644 269.5 644 294V312.5C697.5 322 731.5 350.5 752 377.5C769 399.5 760 431.5 734 442.5C716 450 695 444 683 428.5C669 409.5 644 390 603 390C568 390 512.5 408.5 512.5 459.5C512.5 507 555.5 525 644.5 554.5C764.5 596 795 657 795 727C795 858.5 670 883.5 644 888Z" fill="black"/></g><defs><clipPath id="clip0_223_1921"><path width="24" fill="white" d="M0 0H1200V1200H0V0z"/></clipPath></defs></svg>
